assets/images/sections/amazon-web-services/page-speed.svg

<svg width="32" height="37" viewBox="0 0 25 29" version="1.1" xmlns="http://www.w3.org/2000/svg" xmlns:xlink="http://www.w3.org/1999/xlink">
<title>big-stopwatch</title>
<desc>Created using Figma</desc>
<g id="Canvas" transform="translate(-657 -5173)">
<g id="big-stopwatch">
<g id="Shape">
<use xlink:href="#path0_fill" transform="translate(657.024 5173)" fill="#FFFFFF"/>
</g>
<g id="Shape">
<use xlink:href="#path1_fill" transform="translate(659.772 5180.08)" fill="#FFFFFF"/>
</g>
<g id="Shape">
<use xlink:href="#path2_fill" transform="translate(668.058 5184.24)" fill="#FFFFFF"/>
</g>
<g id="Shape">
<use xlink:href="#path3_fill" transform="translate(669.104 5195.76)" fill="#FFFFFF"/>
</g>
<g id="Shape">
<use xlink:href="#path4_fill" transform="translate(669.104 5181.25)" fill="#FFFFFF"/>
</g>
<g id="Shape">
<use xlink:href="#path5_fill" transform="translate(663.346 5193.86)" fill="#FFFFFF"/>
</g>
<g id="Shape">
<use xlink:href="#path6_fill" transform="translate(673.768 5183.6)" fill="#FFFFFF"/>
</g>
<g id="Shape">
<use xlink:href="#path7_fill" transform="translate(660.96 5189.27)" fill="#FFFFFF"/>
</g>
<g id="Shape">
<use xlink:href="#path8_fill" transform="translate(675.7 5189.27)" fill="#FFFFFF"/>
</g>
<g id="Shape">
<use xlink:href="#path9_fill" transform="translate(663.346 5183.6)" fill="#FFFFFF"/>
</g>
<g id="Shape">
<use xlink:href="#path10_fill" transform="translate(673.767 5193.86)" fill="#FFFFFF"/>
</g>
</g>
</g>
<defs>
<path id="path0_fill" fill-rule="evenodd" d="M 15.0535 4.64062L 15.0535 3.12158L 15.322 3.12158C 15.5428 3.12158 15.7219 2.94531 15.7219 2.72754L 15.7219 1.84473C 15.722 0.827637 14.881 0 13.8474 0L 11.1136 0C 10.08 0 9.23901 0.827637 9.23901 1.84473L 9.23901 2.72754C 9.23901 2.94531 9.41815 3.12158 9.63898 3.12158L 9.90765 3.12158L 9.90765 4.64062C 8.07489 5.02002 6.38904 5.79639 4.94739 6.87402L 4.03009 5.97119C 3.7085 5.65479 3.18518 5.65479 2.86359 5.97119L 1.73047 7.08643C 1.57465 7.23975 1.48889 7.44385 1.48889 7.66064C 1.48889 7.87744 1.57465 8.08105 1.73047 8.23438L 2.63312 9.12305C 0.983948 11.2051 0 13.8218 0 16.6602C 0 23.4331 5.59875 28.9434 12.4805 28.9434C 19.3623 28.9434 24.961 23.4331 24.961 16.6602C 24.961 10.7554 20.705 5.81104 15.0535 4.64062ZM 10.039 1.84473C 10.039 1.26172 10.5211 0.787109 11.1136 0.787109L 13.8474 0.787109C 14.4399 0.787109 14.922 1.26172 14.922 1.84473L 14.922 2.33398L 10.039 2.33398L 10.039 1.84473ZM 14.2535 3.1499L 10.7076 3.1499L 10.7076 4.50146C 11.287 4.42041 11.8787 4.37744 12.4805 4.37744C 13.0824 4.37744 13.6742 4.42041 14.2535 4.50195L 14.2535 3.1499ZM 2.29614 7.67773C 2.29413 7.67578 2.28888 7.6709 2.28888 7.66064C 2.28888 7.65039 2.29419 7.64551 2.29614 7.64355L 3.42926 6.52832C 3.43903 6.51855 3.45483 6.51855 3.46442 6.52832L 4.3222 7.37256C 3.90533 7.72754 3.51318 8.10986 3.14722 8.51562L 2.29614 7.67773ZM 0.799988 16.6602C 0.799988 22.9985 6.03986 28.1558 12.4805 28.1558C 18.9211 28.1558 24.161 22.9985 24.161 16.6602C 24.161 10.3213 18.9211 5.16455 12.4805 5.16455C 6.03986 5.16455 0.799988 10.3213 0.799988 16.6602Z"/>
<path id="path1_fill" fill-rule="evenodd" d="M 0 9.57812C 0 4.29688 4.36584 0 9.73236 0C 15.0988 0 19.4647 4.29688 19.4647 9.57812C 19.4647 14.8594 15.0988 19.1562 9.73236 19.1562C 4.36591 19.1562 0 14.8594 0 9.57812ZM 0.799988 9.57812C 0.799988 14.4253 4.80701 18.3691 9.7323 18.3691C 14.6577 18.3691 18.6647 14.4253 18.6647 9.57812C 18.6647 4.73047 14.6577 0.787109 9.7323 0.787109C 4.80701 0.787109 0.799988 4.73096 0.799988 9.57812Z"/>
<path id="path2_fill" fill-rule="evenodd" d="M 1.83789 0.314941C 1.7998 0.131348 1.63599 0 1.44598 0C 1.25598 0 1.09222 0.131348 1.05414 0.314941C 1.05414 0.314941 0 5.24072 0 5.42334C 0 6.20801 0.648682 6.84619 1.44592 6.84619C 2.24323 6.84619 2.89178 6.20801 2.89178 5.42334C 2.89185 5.24072 1.83789 0.314941 1.83789 0.314941ZM 1.44598 2.35693L 1.79651 4.04248C 1.6842 4.01514 1.56689 4 1.44598 4C 1.32513 4 1.2077 4.01514 1.0954 4.04248L 1.44598 2.35693ZM 0.800049 5.42334C 0.800049 5.77393 1.08978 6.05908 1.44598 6.05908C 1.80206 6.05908 2.09186 5.77393 2.09186 5.42334C 2.09186 5.07275 1.80212 4.7876 1.44598 4.7876C 1.08984 4.7876 0.800049 5.07275 0.800049 5.42334Z"/>
<path id="path3_fill" d="M 0.4 0C 0.179133 0 0 0.176296 0 0.393665L 0 1.91813C 0 2.1355 0.179133 2.3118 0.4 2.3118C 0.620933 2.3118 0.8 2.1355 0.8 1.91813L 0.8 0.393665C 0.8 0.176296 0.620933 0 0.4 0Z"/>
<path id="path4_fill" d="M 0.4 2.3118C 0.620933 2.3118 0.8 2.1355 0.8 1.91813L 0.8 0.393665C 0.8 0.176296 0.620933 0 0.4 0C 0.179133 0 0 0.176296 0 0.393665L 0 1.91813C 0 2.1355 0.179133 2.3118 0.4 2.3118Z"/>
<path id="path5_fill" d="M 1.21248 0.115295L 0.11715 1.19328C -0.03905 1.34701 -0.03905 1.59626 0.11715 1.74999C 0.195283 1.82682 0.297617 1.86527 0.400017 1.86527C 0.502417 1.86527 0.60475 1.82682 0.682883 1.74999L 1.77822 0.672003C 1.93442 0.518277 1.93442 0.269021 1.77822 0.115295C 1.62188 -0.0384316 1.36862 -0.0384316 1.21248 0.115295Z"/>
<path id="path6_fill" d="M 0.400333 1.86533C 0.506467 1.86533 0.6082 1.8238 0.683267 1.74992L 1.778 0.671937C 1.93413 0.518145 1.93407 0.26889 1.7778 0.115229C 1.6216 -0.0384316 1.36827 -0.0384316 1.21213 0.11536L 0.128533 1.18246C 0.0494667 1.25436 0 1.35731 0 1.47167C 3.78956e-15 1.68904 0.1794 1.86533 0.400333 1.86533Z"/>
<path id="path7_fill" d="M 1.949 0L 0.4 0C 0.179133 0 0 0.176296 0 0.393665C 0 0.611034 0.179133 0.78733 0.4 0.78733L 1.949 0.78733C 2.16987 0.78733 2.349 0.611034 2.349 0.393665C 2.349 0.176296 2.16987 0 1.949 0Z"/>
<path id="path8_fill" d="M 1.94847 0L 0.4 0C 0.179133 0 0 0.176296 0 0.393665C 0 0.611034 0.179133 0.78733 0.4 0.78733L 1.94847 0.78733C 2.16933 0.78733 2.34847 0.611034 2.34847 0.393665C 2.34847 0.176296 2.16933 0 1.94847 0Z"/>
<path id="path9_fill" d="M 1.21178 1.74988C 1.28678 1.82376 1.38857 1.86529 1.49471 1.86529L 1.49531 1.86529C 1.71618 1.86529 1.89504 1.689 1.89504 1.47163C 1.89504 1.35976 1.84764 1.25885 1.77144 1.1872L 0.682908 0.115385C 0.526842 -0.038407 0.273442 -0.0384726 0.117242 0.115254C -0.039025 0.268914 -0.0390917 0.51817 0.117108 0.671962L 1.21178 1.74988Z"/>
<path id="path10_fill" d="M 0.682875 0.115319C 0.526675 -0.038407 0.273342 -0.0384726 0.117208 0.115319C -0.0390583 0.269046 -0.0390583 0.518301 0.117142 0.672027L 1.21247 1.75001C 1.29061 1.82691 1.39294 1.86529 1.49534 1.86529C 1.59767 1.86529 1.70007 1.82684 1.77814 1.75001C 1.93441 1.59629 1.93441 1.34703 1.77821 1.19331L 0.682875 0.115319Z"/>
</defs>
</svg>

<svg xmlns="http://www.w3.org/2000/svg" xmlns:xlink="http://www.w3.org/1999/xlink" width="32" height="37" viewBox="0 0 25 29"><g fill="#fff" transform="translate(-657 -5173)"><use xlink:href="#A" x="657.024" y="5173"/><use xlink:href="#B" x="659.772" y="5180.08"/><use xlink:href="#C" x="668.058" y="5184.24"/><use xlink:href="#D" x="669.104" y="5195.76"/><use xlink:href="#E" x="669.104" y="5181.25"/><use xlink:href="#F" x="663.346" y="5193.86"/><use xlink:href="#G" x="673.768" y="5183.6"/><use xlink:href="#H" x="660.96" y="5189.27"/><use xlink:href="#I" x="675.7" y="5189.27"/><use xlink:href="#J" x="663.346" y="5183.6"/><use xlink:href="#K" x="673.767" y="5193.86"/></g><defs><path id="A" d="M15.054 4.64v-1.52h.268c.22 0 .4-.176.4-.394v-.883C15.722.828 14.88 0 13.847 0h-2.734C10.08 0 9.24.828 9.24 1.845v.883c0 .218.18.394.4.394h.27v1.52a12.52 12.52 0 0 0-4.96 2.233L4.03 5.97c-.322-.316-.845-.316-1.167 0L1.73 7.086a.8.8 0 0 0 0 1.148l.903.89C.984 11.205 0 13.822 0 16.66c0 6.773 5.6 12.283 12.48 12.283s12.48-5.5 12.48-12.283c0-5.905-4.256-10.85-9.907-12.02zM10.04 1.845c0-.583.482-1.058 1.075-1.058h2.734c.592 0 1.075.475 1.075 1.058v.49H10.04v-.49zm4.215 1.305h-3.546V4.5a12.79 12.79 0 0 1 1.773-.124c.602 0 1.194.043 1.773.125V3.15zM2.296 7.678c-.007-.027-.002-.032 0-.034L3.43 6.528c.01-.01.026-.01.035 0l.858.844a12.47 12.47 0 0 0-1.175 1.143l-.85-.838zM.8 16.66C.8 23 6.04 28.156 12.48 28.156S24.16 23 24.16 16.66 18.92 5.165 12.48 5.165.8 10.32.8 16.66z" fill-rule="evenodd"/><path id="B" d="M0 9.578C0 4.297 4.366 0 9.732 0s9.732 4.297 9.732 9.578-4.366 9.578-9.732 9.578S0 14.86 0 9.578zm.8 0c0 4.847 4.007 8.79 8.932 8.79s8.932-3.944 8.932-8.79S14.658.787 9.732.787.8 4.73.8 9.578z" fill-rule="evenodd"/><path id="C" d="M1.838.315C1.8.13 1.636 0 1.446 0s-.354.13-.392.315L0 5.423c0 .785.65 1.423 1.446 1.423s1.446-.638 1.446-1.423c0-.183-1.054-5.108-1.054-5.108zm-.392 2.042l.35 1.686A1.48 1.48 0 0 0 1.446 4a1.48 1.48 0 0 0-.351.042l.35-1.686zM.8 5.423c0 .35.3.636.646.636s.646-.285.646-.636-.3-.636-.646-.636S.8 5.073.8 5.423z" fill-rule="evenodd"/><path id="D" d="M.4 0C.18 0 0 .176 0 .394v1.524c0 .217.18.394.4.394s.4-.176.4-.394V.394C.8.176.62 0 .4 0z"/><path id="E" d="M.4 2.312c.22 0 .4-.176.4-.394V.394C.8.176.62 0 .4 0S0 .176 0 .394v1.524c0 .217.18.394.4.394z"/><path id="F" d="M1.212.115L.117 1.193a.39.39 0 0 0 0 .557c.078.077.18.115.283.115s.205-.038.283-.115L1.778.672a.39.39 0 0 0 0-.557c-.156-.154-.4-.154-.566 0z"/><path id="G" d="M.4 1.865c.106 0 .208-.042.283-.115L1.778.672a.39.39 0 0 0 0-.557c-.156-.154-.4-.154-.566 0L.13 1.182A.39.39 0 0 0 0 1.472c0 .217.18.394.4.394z"/><path id="H" d="M1.95 0H.4C.18 0 0 .176 0 .394s.18.394.4.394h1.55c.22 0 .4-.176.4-.394S2.17 0 1.95 0z"/><path id="I" d="M1.948 0H.4C.18 0 0 .176 0 .394s.18.394.4.394h1.548c.22 0 .4-.176.4-.394S2.17 0 1.948 0z"/><path id="J" d="M1.212 1.75c.075.074.177.115.283.115.22 0 .4-.176.4-.394a.39.39 0 0 0-.124-.284L.683.115c-.156-.154-.41-.154-.566 0a.39.39 0 0 0 0 .557L1.212 1.75z"/><path id="K" d="M.683.115c-.156-.154-.4-.154-.566 0a.39.39 0 0 0 0 .557L1.212 1.75c.078.077.18.115.283.115s.205-.038.283-.115a.39.39 0 0 0 0-.557L.683.115z"/></defs></svg>
